svg/300/outlined/directions_bus-fill.svg

<svg xmlns="http://www.w3.org/2000/svg" width="48" height="48" viewBox="0 -960 960 960"><path d="M267.463-140.001q-9.904 0-17.413-5.621-7.51-5.62-7.51-14.841v-80.538Q215.848-252 197.925-282.21q-17.924-30.21-17.924-66.098V-733q0-65.88 71.877-96.439 71.876-30.56 228.725-30.56 157.166 0 228.281 30.144 71.115 30.144 71.115 96.855v384.692q0 35.888-17.924 66.098-17.923 30.21-44.615 41.209v80.538q0 9.221-7.51 14.841-7.509 5.621-17.413 5.621h-8.999q-11.354 0-18.638-5.621-7.285-5.62-7.285-14.841v-61.154h-355.23v61.154q0 9.221-7.285 14.841-7.284 5.621-18.638 5.621h-8.999Zm-42.078-378.69h509.23v-188.002h-509.23v188.002Zm104.679 196.69q20.226 0 34.235-14.158 14.008-14.158 14.008-34.384t-14.158-34.495q-14.158-14.269-34.384-14.269t-34.495 14.418q-14.269 14.418-14.269 34.644t14.418 34.235q14.419 14.009 34.645 14.009Zm300.171 0q20.226 0 34.495-14.158 14.269-14.158 14.269-34.384t-14.418-34.495q-14.419-14.269-34.645-14.269-20.226 0-34.235 14.418-14.008 14.418-14.008 34.644t14.158 34.235q14.158 14.009 34.384 14.009Z"/></svg>

<svg xmlns="http://www.w3.org/2000/svg" width="48" height="48" viewBox="0 -960 960 960"><path d="M267.46-140q-9.9 0-17.41-5.62t-7.51-14.84V-241q-26.69-11-44.62-41.21Q180-312.42 180-348.31V-733q0-65.88 71.88-96.44Q323.75-860 480.6-860q157.17 0 228.28 30.15Q780-799.71 780-733v384.69q0 35.89-17.92 66.1Q744.15-252 717.46-241v80.54q0 9.22-7.51 14.84-7.51 5.62-17.41 5.62h-9q-11.36 0-18.64-5.62-7.28-5.62-7.28-14.84v-61.16H302.38v61.16q0 9.22-7.28 14.84-7.28 5.62-18.64 5.62h-9Zm-42.07-378.69h509.22v-188H225.39v188ZM330.06-322q20.23 0 34.24-14.16 14.01-14.16 14.01-34.38 0-20.23-14.16-34.5t-34.39-14.27q-20.22 0-34.49 14.42Q281-390.47 281-370.24q0 20.22 14.42 34.23Q309.84-322 330.06-322Zm300.18 0q20.22 0 34.49-14.16Q679-350.32 679-370.54q0-20.23-14.42-34.5t-34.64-14.27q-20.23 0-34.24 14.42-14.01 14.42-14.01 34.65 0 20.22 14.16 34.23Q610.01-322 630.24-322Z"/></svg>
